static/fa/svgs/solid/cubes.svg

<svg xmlns="http://www.w3.org/2000/svg" viewBox="0 0 576 512"><!--! Font Awesome Free 6.1.1 by @fontawesome - https://fontawesome.com License - https://fontawesome.com/license/free (Icons: CC BY 4.0, Fonts: SIL OFL 1.1, Code: MIT License) Copyright 2022 Fonticons, Inc.--><path d="m172.1 40.16 96-36.4c12.8-4.849 27-4.849 39.8 0l96 36.4c21.7 8.25 36.1 29.09 36.1 52.36V204.7c1.3.4 2.6.8 3.9.4l96 37.3c21.7 8.2 36.1 29.1 36.1 52.3v119.2c0 22.2-13.1 42.3-33.5 51.2l-96 42.2c-14.3 6.4-30.7 6.4-45 0L288 457.5l-113.5 49.8c-14.3 6.4-30.7 6.4-45 0l-96.04-42.2C13.13 456.2 0 436.1 0 413.9V294.7c0-23.2 14.39-44.1 36.15-52.3l95.95-37.3c1.3.4 2.6 0 3.9-.4V92.52c0-23.27 14.4-44.11 36.1-52.36zm118.7 8.48c-1.8-.69-4.7-.69-5.6 0l-78.4 29.71 80.3 31.15 82.1-31.15-78.4-29.71zM392 210.6V121l-82.4 31.6v89.2l82.4-31.2zm-237.2 40.3c-1.8-.7-4.7-.7-5.6 0l-78.39 29.7L152 311.7l81.2-31.1-78.4-29.7zm18.8 204.4 82.4-36.2v-95.9l-82.4 31.6v100.5zm169.2-174.7 81.2 31.1 81.2-31.1-78.4-29.7c-1.8-.7-4.7-.7-5.6 0l-78.4 29.7zM528 413.9v-90.7l-82.4 31.6v100.5l77.6-34.1c2.9-1.3 4.8-4.1 4.8-7.3z"/></svg>

<svg xmlns="http://www.w3.org/2000/svg" viewBox="0 0 576 512"><!--! Font Awesome Free 6.1.1 by @fontawesome - https://fontawesome.com License - https://fontawesome.com/license/free (Icons: CC BY 4.0, Fonts: SIL OFL 1.1, Code: MIT License) Copyright 2022 Fonticons, Inc. --><path d="M172.1 40.16L268.1 3.76C280.9-1.089 295.1-1.089 307.9 3.76L403.9 40.16C425.6 48.41 440 69.25 440 92.52V204.7C441.3 205.1 442.6 205.5 443.9 205.1L539.9 242.4C561.6 250.6 576 271.5 576 294.7V413.9C576 436.1 562.9 456.2 542.5 465.1L446.5 507.3C432.2 513.7 415.8 513.7 401.5 507.3L288 457.5L174.5 507.3C160.2 513.7 143.8 513.7 129.5 507.3L33.46 465.1C13.13 456.2 0 436.1 0 413.9V294.7C0 271.5 14.39 250.6 36.15 242.4L132.1 205.1C133.4 205.5 134.7 205.1 136 204.7V92.52C136 69.25 150.4 48.41 172.1 40.16V40.16zM290.8 48.64C289 47.95 286.1 47.95 285.2 48.64L206.8 78.35L287.1 109.5L369.2 78.35L290.8 48.64zM392 210.6V121L309.6 152.6V241.8L392 210.6zM154.8 250.9C153 250.2 150.1 250.2 149.2 250.9L70.81 280.6L152 311.7L233.2 280.6L154.8 250.9zM173.6 455.3L256 419.1V323.2L173.6 354.8V455.3zM342.8 280.6L424 311.7L505.2 280.6L426.8 250.9C425 250.2 422.1 250.2 421.2 250.9L342.8 280.6zM528 413.9V323.2L445.6 354.8V455.3L523.2 421.2C526.1 419.9 528 417.1 528 413.9V413.9z"/></svg>
